X:1
T:Title
%%score { ( 1 3 ) | ( 2 4 ) }
L:1/8
M:4/4
K:C
V:1 treble nm="Grand Piano"
V:3 treble 
V:2 bass 
V:4 bass 
V:1
 z4 z2[Q:1/4=100] [CE]>[DF] | [EG]2 [EG]>[FA] [EG]2 [Ec]>[GB] | [GB]2 A>^G A2 d>c | B2 B>A G2 A>G | %4
 [EG]4 [CE]2 [CE]>[DF] | [EG]2 [EG]>[FA] [EG]2 [Ec]>[GB] | [GB]2 A>^G A2 d>c | B2 B>A G2 [FB]2 | %8
[M:3/4] [Ec]6 |[M:1/4] E>F |[M:4/4] G6 z2 | c6 z2 | d2 d>c B2 A>B |[M:3/4] [FA]4 z2 |[M:1/4] G>G | %15
[M:4/4] c6 z2 | d6 z2 | B2 B>A G2 [FB]2 |[M:7/8] c-c-c- c- c3 |] %19
V:2
 z4 z2 [C,G,]>[C,G,] | [C,C]2 [C,C]>[C,C] [C,C]2 [C,C]>[E,C] | %2
 [F,C]2[K:treble] [F,CF]>[F,CF] [F,CF]2 [F,A,F]>[F,A,F] | %3
 [G,DF]2 [G,DF]>[G,CF] [G,B,F]2 [G,B,F]>[G,B,F] | [C,C]4 [C,G,]2 [C,G,]>[C,G,] | %5
 [C,C]2 [C,C]>[C,C] [C,C]2 [C,C]>[E,C] | [F,C]2[K:treble] [F,CF]>[F,CF] [F,CF]2 [F,A,F]>[F,A,F] | %7
 [G,DF]2 [G,DF]>[G,CF] [G,B,F]2[K:bass] [G,,G,]2 |[M:3/4] [C,G,]6 |[M:1/4] C>D |[M:4/4] E6 z2 | %11
 E6[K:treble] z2 | F2 [G,B,F]>[G,CE] [G,DF]2 [G,DF]>[G,DF] |[M:3/4][K:bass] [C,C]2 C,>C, C,2 | %14
[M:1/4] E>E |[M:4/4] E6[K:treble] z2 | F6[K:bass] z2 | %17
 [G,G]2 [G,DG]>[G,B,F] [G,B,F]2[K:bass] [G,,G,]2 |[M:7/8] [C,G,]2 [C,A,]2 [C,G,]3 |] %19
V:3
 x8 | x8 | x8 | x8 | x8 | x8 | x8 | x8 |[M:3/4] x6 |[M:1/4] x2 |[M:4/4] z2 C>C C2 E>G | %11
 z2 G,>G, G,2 G>c | x8 |[M:3/4] z2 C>C [CEG]2 |[M:1/4] x2 |[M:4/4] z2 G,>G, G,2 A>A | %16
 z2 A,>A, A,2 [^Fd]>[Fc] | x8 |[M:7/8] E2 F2 E3 |] %19
V:4
 x8 | x8 | x2[K:treble] x6 | x8 | x8 | x8 | x2[K:treble] x6 | x6[K:bass] x2 |[M:3/4] x6 | %9
[M:1/4] x2 |[M:4/4] z2 C,>C, C,2 C>E | z2 C,>C, C,2[K:treble] E>E | x8 |[M:3/4][K:bass] x6 | %14
[M:1/4] x2 |[M:4/4] z2 C,>C, C,2[K:treble] F>F | z2[K:bass] F,>F, F,2 [D,A,]>[D,A,] | %17
 x6[K:bass] x2 |[M:7/8] x7 |] %19

